!!!OTL: Staendchen.
!!!OTL-incipit: HEUT HAB ICH DIE WACH' ALLHIER
!!!ARE: Europa, Mitteleuropa, Deutschland, Niederrhein
!!!SCT: Z1176
!!!TXL: @@DE
!!!YEM: Copyright 1995, estate of Helmut Schaffrath.
**kern	**text
*ICvox	*
!! Mixed meters:  4/4; 6/8
*M4/4	*
*met(c)	*
*k[f#c#g#]	*
*A:	*
=1	=1
!LO:TX:a:t=Vom Niederrhein.	!
{2cc#	Heut
4b	hab'
8a	ich
8a	die
=2	=2
4g#	Wach'
4a	all-
2b;}	-hier
=3	=3
{2ee	vor
4ff#	dei-
8ee	-ner
8ee	ver-
=4	=4
4dd	-ſchloß-
4cc#	-nen
4b;	Thür,
8r}	.
{8e	ſtehſt
=5	=5
*M6/8	*
4a	du
8a	nicht
4b	auf
8b	und
=6	=6
4cc#	läßt
8cc#	mich
4b}	ein,
{8b	wie
=7	=7
8cc#	kannſt
8cc#	du
8cc#	ſo
4dd	grau-
8dd	-ſam
=8	=8
4.ee;	ſeyn?
!LO:TX:a:t=Zögernd.	!
4a	ja!
8ccn	ja!
=9	=9
4.b;	ja!
8r}	.
{4ff#	wie
=10	=10
*M4/4	*
*met(c)	*
4ee	kannſt
8a	du
8a	ſo
4cc#	grau-
4b	-ſam
=11	=11
2a	ſeyn?
2r}	.
==	==
!!!AGN: Liebes - Lied, verlassene Liebe
!!!ONB: ESAC (Essen Associative Code) Database: ZUCCAL
!!!AMT: irregular
!!!AIN: vox
!!!EED: Helmut Schaffrath
!!!EEV: 1.0
!!!GTL: V. Lieder der Minne.
!!!URL-scan: https://www.digitale-sammlungen.de/de/view/bsb11160573?page=368
!!!ENC: Anna Maria Matuszewska
!!!EEV: 2025/02/05
*-	*-
